icons/overwrite-project-24.svg

<?xml version="1.0" encoding="UTF-8"?><svg id="icons" xmlns="http://www.w3.org/2000/svg" viewBox="0 0 24 24"><defs><style>.cls-1{fill:none;}.cls-1,.cls-2{stroke-width:0px;}.cls-2{fill:#000;}</style></defs><path class="cls-2" d="M23.97,6v2h-.97v-2c0-1.10254-.89746-2-2-2h-2.29297l1.34668,1.34668-.70703.70703-2.55371-2.55371,2.55273-2.55371.70703.70703-1.34595,1.34668h2.29321c1.6543,0,2.97,1.3457,2.97,3ZM8,12H1v-6h14v4h1V2h-4V0H4v2H0v11h7c0-.55273.44727-1,1-1ZM5,1h6v1h-6v-1ZM1,3h14v2H1v-2ZM20,13v-2h-8v2h-4v11h16v-11h-4ZM13,12h6v1h-6v-1ZM23,23h-14v-6h14v6ZM23,16h-14v-2h14v2Z"/><rect class="cls-1" width="24" height="24"/></svg>

<svg xmlns="http://www.w3.org/2000/svg" viewBox="0 0 24 24"><path d="M23.97 6v2H23V6c0-1.103-.897-2-2-2h-2.293l1.347 1.347-.707.707L16.793 3.5 19.346.946l.707.707L18.707 3H21c1.654 0 2.97 1.346 2.97 3zM8 12H1V6h14v4h1V2h-4V0H4v2H0v11h7a1 1 0 0 1 1-1zM5 1h6v1H5V1zM1 3h14v2H1V3zm19 10v-2h-8v2H8v11h16V13h-4zm-7-1h6v1h-6v-1zm10 11H9v-6h14v6zm0-7H9v-2h14v2z" stroke-width="0"/><path stroke-width="0" fill="none" d="M0 0h24v24H0z"/></svg>
